X: 32
T: Pollonesse #32
M: 3/4
L: 1/16
K: Am
Q:120
c2e2 d2e2 c2e2|d2ef e8|c2e2 d2e2 c2e2|B2c2 d2Bc A4|
c2e2 d2e2 c2e2|d2ef e4g2b2| a2g2 e4 g2f2|d4e8:|
d2c2 A4 c2e2| d2Bd c2A2 c2e2| d2Bd c2A2 c2B2|G4A8:|

